X:9012
T:La Panderetera (MQ 034)
C:Tradicional
S:Msica Tradicional Asturiana, (C) Tello & Tito. Asturies, 2001.
S:http://pagina.de/MusTradAst <telloytito@asturies.org>
N:Es otra de las piezas caractersticas de la gaita asturiana.
N:Aunque se cree que es una cancin popular y annima, hay gente que atribuye su autora al pintor Martnez Abades que era tambin un excelente msico.
N:Yo escuch hace tiempo una grabacin discogrfica de esta cancin que me result un tanto extraa, pues le haban puesto la letra de un villancico y el acompaamiento musical era con guitarras, panderetas y castauelas, ms propio de una cancin del folclore del sur que de una asturiana, estaba cantada por un grupo musical andaluz.
A:Asturies
Z:Manolo Quirs 034
M:2/4
L:1/8
Q:1/4=84
K:C
G
|c/B/A/B/ c/B/A/B/|G/A/G/F/ EG|c/B/A/B/ c/B/A/B/|G3 E/F/|
|: G/F/E/F/ G/F/G/F/|D/E/D/C/ B,/C/D/E/|FG/F/ ED|A3 G/E/|[1 C3 E/F/ :|[2C4-|C2 EG|
c3 B|c2 BA|G3 A|c2 BA|G4-|G2 EF|G3 A|F2 {GF}DC|B,3 D|F2 ED|C4|
|: G(3A/G/F/ G(3A/G/F/|G3 E|F(3G/F/E/ DD|F(3G/F/E/ F(3G/F/E/|F3D|E(3F/E/D/ C2 :|
|: D>E FG|E/F/E/D/ CE|D/E/D/C/ B,D|C4 :|
|: C>E Gc|B2 GA|_B4|A/B/A/G/ AB|G4 :|
|: C3 E|G3 A|G2 F/E/D/C/|B,3 D|F2 {G}ED|C4 :|
